img/list-marker-2@35px.svg

<?xml version="1.0" encoding="UTF-8"?>
<svg width="24px" height="24px" viewBox="0 0 24 24" version="1.1" xmlns="http://www.w3.org/2000/svg" xmlns:xlink="http://www.w3.org/1999/xlink">
    <!-- Generator: Sketch 64 (93537) - https://sketch.com -->
    <title>list-marker-2@35px</title>
    <desc>Created with Sketch.</desc>
    <g id="list-marker-2@35px" stroke="none" stroke-width="1" fill="none" fill-rule="evenodd">
        <path d="M12,4 C16.418278,4 20,7.581722 20,12 C20,16.418278 16.418278,20 12,20 C7.581722,20 4,16.418278 4,12 C4,7.581722 7.581722,4 12,4 Z M12.0523636,8.36363636 C10.8829091,8.36363636 9.89672727,8.91345455 9.81818182,9.92581818 C9.92290909,10.1527273 10.1323636,10.2923636 10.3854545,10.2923636 C10.656,10.2923636 10.944,10.1527273 11.04,9.55927273 L11.232,8.69527273 C11.3454545,8.66909091 11.4589091,8.66036364 11.5636364,8.66036364 C12.2356364,8.66036364 12.6458182,9.17527273 12.6458182,9.99563636 C12.6458182,10.9032727 12.2530909,11.4967273 11.2581818,12.5178182 C10.8305455,12.9629091 10.3243636,13.4603636 9.84436364,13.984 L9.84436364,14.7694545 L14.2167273,14.7694545 L14.2167273,13.696 L10.5774545,13.696 C10.9789091,13.3818182 11.3629091,13.0763636 11.6596364,12.8669091 C13.3265455,11.776 14.0683636,10.9818182 14.0683636,10.0741818 C14.0683636,9.088 13.4312727,8.36363636 12.0523636,8.36363636 Z" id="Combined-Shape" fill="#89ABA8"></path>
    </g>
</svg>

<svg width="24" height="24" xmlns="http://www.w3.org/2000/svg"><path d="M12 4a8 8 0 110 16 8 8 0 010-16zm.052 4.364c-1.17 0-2.155.55-2.234 1.562a.612.612 0 00.567.366c.271 0 .559-.14.655-.733l.192-.864a1.48 1.48 0 01.332-.035c.672 0 1.082.515 1.082 1.336 0 .907-.393 1.5-1.388 2.522-.427.445-.934.942-1.414 1.466v.785h4.373v-1.073h-3.64c.402-.314.786-.62 1.083-.83 1.667-1.09 2.408-1.884 2.408-2.792 0-.986-.637-1.71-2.016-1.71z" fill="#89ABA8" fill-rule="evenodd"/></svg>
